src/components/Header/Halva/img/logo.svg

<svg width="87" height="16" fill="none" xmlns="http://www.w3.org/2000/svg"><path fill-rule="evenodd" clip-rule="evenodd" d="M25.5399 11.8781c-.7669 0-1.5166-.2273-2.1545-.6532-.6378-.4259-1.135-1.0313-1.429-1.73971-.2939-.70839-.3712-1.48799-.2223-2.24033.149-.75234.5176-1.44366 1.0592-1.98661.5417-.54295 1.2321-.91318 1.9841-1.06392.752-.15073 1.5318-.07521 2.2409.21702.7091.29224 1.3156.78808 1.743 1.42489.4275.6368.6565 1.386.6584 2.15294.0016.51038-.0976 1.01605-.2919 1.48801-.1943.47195-.4799.90091-.8403 1.26221-.3605.3613-.7888.6479-1.2603.8433-.4714.1954-.9769.2958-1.4873.2954zm0-11.87818992C24.1935-.0039061 22.8679.332098 21.6859.976803c-1.182.644707-2.1823 1.577267-2.9081 2.711307-.7258 1.13405-1.1537 2.43291-1.244 3.77629-.0904 1.34338.1597 2.6878.7271 3.9089.5674 1.221 1.4337 2.2791 2.5187 3.0763 1.0851.7972 2.3538 1.3077 3.6885 1.4843 1.3348.1765 2.6926.0134 3.9476-.4744 1.255-.4877 2.3666-1.2842 3.2319-2.3158-.501.9585-1.2545 1.7617-2.1789 2.323v.4137H33.52V7.96773c-.0081-2.11071-.8501-4.13267-2.3426-5.62518C29.6849.850038 27.6629.00798172 25.5522-.00008992h-.0123zM63.9326 11.9516h-5.2649V9.35903h5.1668c.6466 0 1.4005.61291 1.4005 1.29937-.0032.3436-.1418.672-.3856.9141-.2438.2421-.5732.3783-.9168.3791zm-5.2649-7.90036h4.4221c.3318.02455.6434.16847.8772.40511.2339.23663.374.54997.3946.882-.0043.17882-.0442.35499-.1174.5182-.0733.16321-.1783.31018-.309.43231-.1307.12213-.2844.21698-.4522.27898-.1678.06201-.3462.08993-.525.08214h-4.2903V4.05124zm8.8626 3.46907c.4776-.7302.746-1.5772.7762-2.44914.0303-.87193-.1788-1.73551-.6045-2.49704-.4329-.74002-1.0505-1.35499-1.7923-1.784733-.7419-.429743-1.5826-.65954-2.4399-.666905h-8.8504V15.8804h9.9016c1.2669.0155 2.4881-.4725 3.3954-1.3568.9074-.8843 1.4265-2.0927 1.4435-3.3595.0077-.7094-.1553-1.41022-.4753-2.04333-.32-.63312-.7877-1.17995-1.3634-1.59433l.0091-.00613zM50.6049 5.939c1.33 3.58552 1.3974 6.8401 1.3974 9.9475h-4.1004c0-2.5221-.0888-4.8174-.6129-6.89215-.7048-2.7826-2.0226-4.80214-3.2453-4.80214-1.2228 0-2.5436 2.01954-3.2485 4.80214-.5301 2.07475-.6129 4.31185-.6129 6.89215h-4.1187c0-2.8286.0643-6.36198 1.3944-9.9475 1.238-3.34648 3.5518-5.93908992 6.5795-5.93908992 3.0278 0 5.3385 2.59260992 6.5766 5.93295992l-.0092.00613zM11.8475.131686h4.1127V1.78961c.0025 1.19133-.2621 2.36809-.7744 3.44364-.5123 1.07556-1.2593 2.02255-2.186 2.77126.9258.7502 1.6721 1.69792 2.1843 2.77379.5122 1.0758.7773 2.2526.7761 3.4442v1.6579h-4.1127v-2.0747c0-1.0257-.4074-2.0094-1.1327-2.7347-.7253-.7253-1.709-1.13277-2.73471-1.13277-1.02572 0-2.00942.40747-2.73471 1.13277-.72529.7253-1.13275 1.709-1.13275 2.7347v2.0747H.00000826v-1.6579C-.00170567 13.0308.263271 11.8539.775513 10.778 1.28776 9.70207 2.03428 8.75442 2.96036 8.00451 2.03468 7.25491 1.2884 6.30775.776174 5.2324.263948 4.15704-.00124832 2.98072.00000826 1.78961V.128621H4.11263V2.20332c0 .50788.10003 1.01079.29439 1.48001.19436.46922.47923.89557.83836 1.25469.35913.35913.78547.64401 1.25469.83836.46923.19436.97214.2944 1.48002.2944.50788 0 1.01079-.10004 1.48001-.2944.46922-.19435.8956-.47923 1.2547-.83836.3591-.35912.644-.78547.8384-1.25469.1943-.46922.2943-.97213.2943-1.48001V.128621v.003065zM78.8906 11.8781c-.7674.0024-1.5184-.2228-2.1578-.6473-.6394-.4244-1.1386-1.0289-1.4344-1.73709-.2958-.70818-.3749-1.48817-.2273-2.24131.1475-.75314.5152-1.4456 1.0563-1.98978.5412-.54418 1.2316-.91563 1.9839-1.06736.7523-.15173 1.5328-.07693 2.2426.21494.7098.29187 1.317.7877 1.745 1.42477.428.63707.6574 1.38675.6592 2.15421.0008 1.02709-.406 2.01252-1.1311 2.73992-.7251.7274-1.7093 1.1374-2.7364 1.1398v.0092zm7.9678-3.92876c-.0113-1.87693-.6828-3.69-1.8969-5.12145C83.7474 1.39645 82.0683.437971 80.2183.120439c-1.8499-.317533-3.7525.026143-5.3745.970791-1.6219.94465-2.8596 2.43-3.4962 4.19573-.6366 1.76572-.6314 3.69916.0146 5.46144.6461 1.7623 1.8917 3.241 3.5187 4.177 1.6269.9359 3.5314 1.2694 5.3796.942 1.8482-.3275 3.5222-1.2949 4.7286-2.7328-.5019.9577-1.2552 1.7608-2.1789 2.3229v.4137h4.0482V7.94934z" fill="#E84249"/></svg>

<svg width="87" height="16" viewBox="0 0 87 16" fill="none" xmlns="http://www.w3.org/2000/svg">
<path fill-rule="evenodd" clip-rule="evenodd" d="M25.5399 11.8781C24.773 11.8781 24.0233 11.6508 23.3854 11.2249C22.7476 10.799 22.2504 10.1936 21.9564 9.48519C21.6625 8.7768 21.5852 7.9972 21.7341 7.24486C21.8831 6.49252 22.2517 5.8012 22.7933 5.25825C23.335 4.7153 24.0254 4.34507 24.7774 4.19433C25.5294 4.0436 26.3092 4.11912 27.0183 4.41135C27.7274 4.70359 28.3339 5.19943 28.7613 5.83624C29.1888 6.47304 29.4178 7.22224 29.4197 7.98918C29.4213 8.49956 29.3221 9.00523 29.1278 9.47719C28.9335 9.94914 28.6479 10.3781 28.2875 10.7394C27.927 11.1007 27.4987 11.3873 27.0272 11.5827C26.5558 11.7781 26.0503 11.8785 25.5399 11.8781ZM25.5399 -8.9923e-05C24.1935 -0.0039061 22.8679 0.332098 21.6859 0.976803C20.5039 1.62151 19.5036 2.55407 18.7778 3.68811C18.052 4.82216 17.6241 6.12102 17.5338 7.4644C17.4434 8.80778 17.6935 10.1522 18.2609 11.3733C18.8283 12.5943 19.6946 13.6524 20.7796 14.4496C21.8647 15.2468 23.1334 15.7573 24.4681 15.9339C25.8029 16.1104 27.1607 15.9473 28.4157 15.4595C29.6707 14.9718 30.7823 14.1753 31.6476 13.1437C31.1466 14.1022 30.3931 14.9054 29.4687 15.4667V15.8804H33.52V7.96773C33.5119 5.85702 32.6699 3.83506 31.1774 2.34255C29.6849 0.850038 27.6629 0.00798172 25.5522 -8.9923e-05H25.5399ZM63.9326 11.9516H58.6677V9.35903H63.8345C64.4811 9.35903 65.235 9.97194 65.235 10.6584C65.2318 11.002 65.0932 11.3304 64.8494 11.5725C64.6056 11.8146 64.2762 11.9508 63.9326 11.9516ZM58.6677 4.05124H63.0898C63.4216 4.07579 63.7332 4.21971 63.967 4.45635C64.2009 4.69298 64.341 5.00632 64.3616 5.33835C64.3573 5.51717 64.3174 5.69334 64.2442 5.85655C64.1709 6.01976 64.0659 6.16673 63.9352 6.28886C63.8045 6.41099 63.6508 6.50584 63.483 6.56784C63.3152 6.62985 63.1368 6.65777 62.958 6.64998H58.6677V4.05124ZM67.5303 7.52031C68.0079 6.79011 68.2763 5.94311 68.3065 5.07117C68.3368 4.19924 68.1277 3.33566 67.702 2.57413C67.2691 1.83411 66.6515 1.21914 65.9097 0.789397C65.1678 0.359654 64.3271 0.129857 63.4698 0.122492H54.6194V15.8804H64.521C65.7879 15.8959 67.0091 15.4079 67.9164 14.5236C68.8238 13.6393 69.3429 12.4309 69.3599 11.1641C69.3676 10.4547 69.2046 9.75388 68.8846 9.12077C68.5646 8.48765 68.0969 7.94082 67.5212 7.52644L67.5303 7.52031ZM50.6049 5.939C51.9349 9.52452 52.0023 12.7791 52.0023 15.8865H47.9019C47.9019 13.3644 47.8131 11.0691 47.289 8.99435C46.5842 6.21175 45.2664 4.19221 44.0437 4.19221C42.8209 4.19221 41.5001 6.21175 40.7952 8.99435C40.2651 11.0691 40.1823 13.3062 40.1823 15.8865H36.0636C36.0636 13.0579 36.1279 9.52452 37.458 5.939C38.696 2.59252 41.0098 -8.9923e-05 44.0375 -8.9923e-05C47.0653 -8.9923e-05 49.376 2.59252 50.6141 5.93287L50.6049 5.939ZM11.8475 0.131686H15.9602V1.78961C15.9627 2.98094 15.6981 4.1577 15.1858 5.23325C14.6735 6.30881 13.9265 7.2558 12.9998 8.00451C13.9256 8.75471 14.6719 9.70243 15.1841 10.7783C15.6963 11.8541 15.9614 13.0309 15.9602 14.2225V15.8804H11.8475V13.8057C11.8475 12.78 11.4401 11.7963 10.7148 11.071C9.9895 10.3457 9.0058 9.93823 7.98009 9.93823C6.95437 9.93823 5.97067 10.3457 5.24538 11.071C4.52009 11.7963 4.11263 12.78 4.11263 13.8057V15.8804H8.26178e-06V14.2225C-0.00170567 13.0308 0.263271 11.8539 0.775513 10.778C1.28776 9.70207 2.03428 8.75442 2.96036 8.00451C2.03468 7.25491 1.2884 6.30775 0.776174 5.2324C0.263948 4.15704 -0.00124832 2.98072 8.26178e-06 1.78961V0.128621H4.11263V2.20332C4.11263 2.7112 4.21266 3.21411 4.40702 3.68333C4.60138 4.15255 4.88625 4.5789 5.24538 4.93802C5.60451 5.29715 6.03085 5.58203 6.50007 5.77638C6.9693 5.97074 7.47221 6.07078 7.98009 6.07078C8.48797 6.07078 8.99088 5.97074 9.4601 5.77638C9.92932 5.58203 10.3557 5.29715 10.7148 4.93802C11.0739 4.5789 11.3588 4.15255 11.5532 3.68333C11.7475 3.21411 11.8475 2.7112 11.8475 2.20332V0.128621V0.131686ZM78.8906 11.8781C78.1232 11.8805 77.3722 11.6553 76.7328 11.2308C76.0934 10.8064 75.5942 10.2019 75.2984 9.49371C75.0026 8.78553 74.9235 8.00554 75.0711 7.2524C75.2186 6.49926 75.5863 5.8068 76.1274 5.26262C76.6686 4.71844 77.359 4.34699 78.1113 4.19526C78.8636 4.04353 79.6441 4.11833 80.3539 4.4102C81.0637 4.70207 81.6709 5.1979 82.0989 5.83497C82.5269 6.47204 82.7563 7.22172 82.7581 7.98918C82.7589 9.01627 82.3521 10.0017 81.627 10.7291C80.9019 11.4565 79.9177 11.8665 78.8906 11.8689V11.8781ZM86.8584 7.94934C86.8471 6.07241 86.1756 4.25934 84.9615 2.82789C83.7474 1.39645 82.0683 0.437971 80.2183 0.120439C78.3684 -0.197094 76.4658 0.146582 74.8438 1.09123C73.2219 2.03588 71.9842 3.52123 71.3476 5.28696C70.711 7.05268 70.7162 8.98612 71.3622 10.7484C72.0083 12.5107 73.2539 13.9894 74.8809 14.9254C76.5078 15.8613 78.4123 16.1948 80.2605 15.8674C82.1087 15.5399 83.7827 14.5725 84.9891 13.1346C84.4872 14.0923 83.7339 14.8954 82.8102 15.4575V15.8712H86.8584V7.96773V7.94934Z" fill="#E84249"/>
</svg>
